X:1
T:Title
%%score { 1 | 2 }
L:1/8
M:4/4
K:D
V:1 treble nm="Grand Piano"
V:2 bass 
V:1
 z4 z2[Q:1/4=94] [A,A][A,A] | [FA]2 [FA][FA] [EA]AGG | F6 FF | [FA]2 [FA]2 [EA]AGG | G4 z2 A,A, | %5
 A2 A2 A2 AA | A2 A2 A2 AA | [B,G]2 [B,G]2 [A,CG][B,DG][B,DG][B,DG] | [A,DF]6 [A,A][A,A] | %9
 [FA] [FA]2 [FA] [EA]AGG | F6 AA | [A,FA]2 [A,FA]2 [B,FA][B,CA] [B,FB]>[B,FA] | %12
 [B,EG]4 z2 [B,GB][B,GB] |[M:7/8] [Ge]2 [GB]2 [GB]3 |[M:1/4] BB |[M:9/8] d2 A- A A2- ADD | %16
[M:4/4] F2 F2 FGGC |[M:3/4] D6 |[M:1/4] AA |[M:4/4] [FA]2 [FA][FA] [EA]AGG | F6 FF | %21
 [FA]2 [FA]2 [EA]AGG | G4 z2 A,A, | A2 A2 A2 AA | A2 A2 A2 AA | %25
 [B,G]2 [B,G]2 [A,CG][B,DG][B,DG][B,DG] | [A,DF]6 [A,A][A,A] | [FA] [FA]2 [FA] [EA]AGG | F6 AA | %29
 [A,FA]2 [A,FA]2 [B,FA][B,CA] [B,FB]>[B,FA] | [B,EG]4 z2 [B,GB][B,GB] |[M:7/8] [Ge]2 [GB]2 [GB]3 | %32
[M:1/4] BB |[M:9/8] d2 A- A A2- ADD |[M:4/4] F2 F2 FGGC |[M:3/4] D6 |[M:1/4] AA | %37
[M:4/4] d2 dd dABd | d6 AA | [Fd]2 [Ad]2 dcde | e6 AA | [A,FA] [A,FA]2 [A,FA] [EA]AGG |[M:3/4] F6 | %43
[M:1/4] AA |[M:4/4] [A,FA]2 [A,FA]2 [B,FA][B,CA] [B,FB]>[B,FA] | [B,EG]6 [B,GB][B,GB] | %46
[M:7/8] [Ge]2 [GB]2 [GB]3 |[M:1/4] BB |[M:9/8] d2 A- A A2- ADD |[M:4/4] F2 F2 FGGC |[M:3/4] D6 |] %51
V:2
 z4 z2 [D,F,][D,F,] | [D,A,]2 [D,A,][D,A,] [D,G,][D,F,D][D,B,D][D,B,D] | [D,A,D]6 [D,A,D][D,A,D] | %3
 [D,A,]2 [D,A,]2 [D,G,][D,F,D][D,B,D][D,B,D] | [E,A,C]4 z4 | %5
 [A,CF]2 [G,CE]2[K:bass] [G,CE]2 [F,D][F,A,D] | [E,G,D]2 [E,G,C]2 [E,G,C]2 [A,,G,A,][A,,G,A,] | %7
 [A,,E,]2 [A,,E,]2 A,,A,,A,,A,, | D,6 [D,F,][D,F,] | %9
 [D,A,] [D,A,]2 [D,A,] [D,G,][D,F,D][D,B,D][D,B,D] | [D,A,D]6 [D,F,A,][D,F,A,] | %11
 D,2 D,2 ^D,D, D,>D, | E,4 z2 E,E, |[M:7/8] [E,B,]2 [E,B,]2 [E,E]3 | %14
[M:1/4][K:treble] [G,DE][^G,D=F] | %15
[M:9/8] [A,DF]2 [A,DF]- [A,DF] [A,DF]2- [A,DF][K:bass][F,A,][F,A,] | %16
[M:4/4] [D,A,D]2 [F,A,D]2 [F,B,D][E,B,D][E,A,C][A,,G,A,] |[M:3/4] [D,F,A,]6 | %18
[M:1/4] [D,F,A,][D,F,A,] |[M:4/4] [D,A,]2 [D,A,][D,A,] [D,G,][D,F,D][D,B,D][D,B,D] | %20
 [D,A,D]6 [D,A,D][D,A,D] | [D,A,]2 [D,A,]2 [D,G,][D,F,D][D,B,D][D,B,D] | [E,A,C]4 z4 | %23
 [A,CF]2 [G,CE]2[K:bass] [G,CE]2 [F,D][F,A,D] | [E,G,D]2 [E,G,C]2 [E,G,C]2 [A,,G,A,][A,,G,A,] | %25
 [A,,E,]2 [A,,E,]2 A,,A,,A,,A,, | D,6 [D,F,][D,F,] | %27
 [D,A,] [D,A,]2 [D,A,] [D,G,][D,F,D][D,B,D][D,B,D] | [D,A,D]6 [D,F,A,][D,F,A,] | %29
 D,2 D,2 ^D,D, D,>D, | E,4 z2 E,E, |[M:7/8] [E,B,]2 [E,B,]2 [E,E]3 | %32
[M:1/4][K:treble] [G,DE][^G,D=F] | %33
[M:9/8] [A,DF]2 [A,DF]- [A,DF] [A,DF]2- [A,DF][K:bass][F,A,][F,A,] | %34
[M:4/4] [D,A,D]2 [F,A,D]2 [F,B,D][E,B,D][E,A,C][A,,G,A,] |[M:3/4] [D,F,A,]6 | %36
[M:1/4] [D,F,D][D,F,D] |[M:4/4] [D,F,D]2 [E,G,D][E,G,D] [F,A,D][F,D][K:treble][G,DG][B,DG] | %38
 [A,DF]6[K:bass] [F,D][F,D] | [D,A,]2 [F,D]2[K:treble] [B,DF][^A,EG][B,DF][A,DG] | %40
 [A,CG]6[K:bass] A,A, | D, D,2 D, [D,G,][D,F,D][D,B,D][D,B,D] |[M:3/4] [D,A,D]6 | %43
[M:1/4] [D,F,A,][D,F,A,] |[M:4/4] D,2 D,2 ^D,D, D,>D, | E,6 E,E, |[M:7/8] [E,B,]2 [E,B,]2 [E,E]3 | %47
[M:1/4][K:treble] [G,DE][^G,D=F] | %48
[M:9/8] [A,DF]2 [A,DF]- [A,DF] [A,DF]2- [A,DF][K:bass][F,A,][F,A,] | %49
[M:4/4] [D,A,D]2 [F,A,D]2 [F,B,D][E,B,D][E,A,C][A,,G,A,] |[M:3/4] [D,F,A,]6 |] %51

